X: 18395
T: Hunt For Wild Flora
R: reel
M: 4/4
K: Dmajor
Dd=cA FGAE|=FAEF EFAD|=CDEG cBdc|gfaf ed=cA|
Dd=cA FGAE|=FAEF EFAD|=CDEG cBAG|E=FFE ~D3 E:|
|:DFAc ~d3 c|dcBc BAFA|G ~E3 FEDE|DB,DE DB,A,B,|
DFAc ~d3 f|gfed cBcd|~B3 A ~F3 A|FEEF ~D3 E:|
=CEFG ADED|A,DFD ADED|A,DFD ADDE|dD^=cD BDAD|
=CEFG ADED|A,DFD ADED|A,DD/D/D B,EE/E/E|~E3 d cdec|
|:d2ad bdad|~a3 b afed|B2 gB aBgB|~g3 a gfed|
A2aA gAfA|fgfe dcBc|d ~B3 A ~F|1 ~E3 A cdec:|

